package/converter/svg/light/line-height.svg

<svg xmlns="http://www.w3.org/2000/svg" viewBox="0 0 576 512"><!-- Font Awesome Pro 6.0.0-alpha2 by @fontawesome - https://fontawesome.com License - https://fontawesome.com/license (Commercial License) --><path d="M164.688 139.312C167.812 142.438 171.906 144 176 144S184.188 142.438 187.312 139.312C193.562 133.062 193.562 122.937 187.312 116.688L107.312 36.688C101.062 30.438 90.937 30.438 84.688 36.688L4.688 116.688C-1.563 122.938 -1.563 133.063 4.688 139.312S21.063 145.562 27.312 139.312L80 86.625V425.375L27.312 372.687C21.062 366.437 10.937 366.437 4.688 372.687S-1.563 389.062 4.688 395.312L84.688 475.312C87.812 478.438 91.906 480 96 480S104.188 478.438 107.312 475.312L187.312 395.312C193.562 389.062 193.562 378.937 187.312 372.688S170.937 366.438 164.688 372.688L112 425.375V86.625L164.688 139.312ZM272 112H560C568.844 112 576 104.844 576 96S568.844 80 560 80H272C263.156 80 256 87.156 256 96S263.156 112 272 112ZM560 240H272C263.156 240 256 247.156 256 256S263.156 272 272 272H560C568.844 272 576 264.844 576 256S568.844 240 560 240ZM560 400H272C263.156 400 256 407.156 256 416S263.156 432 272 432H560C568.844 432 576 424.844 576 416S568.844 400 560 400Z"/></svg>

<svg xmlns="http://www.w3.org/2000/svg" viewBox="0 0 576 512"><!--! Font Awesome Pro 6.6.0 by @fontawesome - https://fontawesome.com License - https://fontawesome.com/license (Commercial License) Copyright 2024 Fonticons, Inc. --><path d="M107.3 36.7c-6.2-6.2-16.4-6.2-22.6 0l-80 80c-6.2 6.2-6.2 16.4 0 22.6s16.4 6.2 22.6 0L80 86.6l0 338.7L27.3 372.7c-6.2-6.2-16.4-6.2-22.6 0s-6.2 16.4 0 22.6l80 80c6.2 6.2 16.4 6.2 22.6 0l80-80c6.2-6.2 6.2-16.4 0-22.6s-16.4-6.2-22.6 0L112 425.4l0-338.7 52.7 52.7c6.2 6.2 16.4 6.2 22.6 0s6.2-16.4 0-22.6l-80-80zM272 80c-8.8 0-16 7.2-16 16s7.2 16 16 16l288 0c8.8 0 16-7.2 16-16s-7.2-16-16-16L272 80zm0 160c-8.8 0-16 7.2-16 16s7.2 16 16 16l288 0c8.8 0 16-7.2 16-16s-7.2-16-16-16l-288 0zM256 416c0 8.8 7.2 16 16 16l288 0c8.8 0 16-7.2 16-16s-7.2-16-16-16l-288 0c-8.8 0-16 7.2-16 16z"/></svg>
